!!!COM: Haydn, Franz Joseph
!!!OTL: String Quartet in G Major
!!!OPS: Opus 33
!!!ONM: No. 5
!!!OMD: Scherzo: Allegro
!!!OMV: 3
!!!SCT: H III:41
!!!SCA: Thematisch-bibliographisches Werkevererzeichnis (A. van Hoboken)
!!!YOR: Trautwein Edition
!!!ENC: Frances Bennion
!!!CDT: 1732/3/31/-1809/5/31/
!!!CNT: Oesterreich
!!!YEC: Copyright (c) 1994, 2000 Center for Computer Assisted Research in the Humanities
!!!YEM: Rights to all derivative editions reserved.
!!!YEM: Refer to licensing agreement for further details.
!!!YEN: United States of America
**kern	**kern	**kern	**kern
*k[f#]	*k[f#]	*k[f#]	*k[f#]
*G:	*G:	*G:	*G:
*clefF4	*clefC3	*clefG	*clefG
*M3/4	*M3/4	*M3/4	*M3/4
2r	2r	2r	2r
4r	4r	4r	8G
.	.	.	8B
=1	=1	=1	=1
4GG	4d	4B	4d
4GG	4d	4B	4B
4GG	4d	4B	8f#
.	.	.	8g
=2	=2	=2	=2
4GG	4d	4B	4d
4GG	4d	4B	8a#
.	.	.	8b
4GG	4d	4B	4g
=3	=3	=3	=3
4GG	4d	4B	8cc#
.	.	.	8dd
4GG	4d	4B	4b
4GG	4d	4B	8ff#
.	.	.	8gg
=4	=4	=4	=4
2A	2f#	2c	2dd
4r	4r	4r	8d
.	.	.	8e-
=5	=5	=5	=5
2.r	2.r	2.r	8e
.	.	.	8f
.	.	.	8f#
.	.	.	8g
.	.	.	8g#
.	.	.	8a
=6	=6	=6	=6
4r	4r	4r	8b
.	.	.	8cc
4F#	4d	4cc	8aa
.	.	.	8ff#
4F#	4d	4a	8dd
.	.	.	8cc
=7	=7	=7	=7
4G	4d	4g	4b
4D	4d	4b	4gg
4D	4d	4a	4ff#
=8	=8	=8	=8
2.r	2.r	2.r	2.r
=9	=9	=9	=9
2.d	2.cc	2.ff#	2.aa
=10	=10	=10	=10
4G	4b	4gg	4bb
2r	2r	2r	4r
.	.	.	8bb
.	.	.	8aa#
=11	=11	=11	=11
4G	4g	4e	8bb
.	.	.	8ff#
2r	2r	2r	8gg
.	.	.	8ee
.	.	.	8aa
.	.	.	8gg#
=12	=12	=12	=12
4F#	4f#	4d	8aa
.	.	.	8ee
4r	4r	4r	8ff#
.	.	.	8dd
8A	8a	8aa	8aa
8G#	8g#	8gg#	8gg#
=13	=13	=13	=13
8A	8a	8aa	8aa
8G#	8g#	8gg#	8gg#
8A	8a	8aa	8aa
8G#	8g#	8gg#	8gg#
8A	8a	8aa	8aa
8G#	8g#	8gg#	8gg#
=14	=14	=14	=14
8A	8a	8aa	8aa
8E	8e	8ee	8ee
8F#	8f#	8ff#	8ff#
8C#	8c#	8cc#	8cc#
8D	8d	8dd	8dd
8AA	8A	8a	8a
=15	=15	=15	=15
4AA	4G	4g	4g
4AA	4c#	4e	4g
4AA	4c#	4e	4g
=16	=16	=16	=16
2AA	2c#	2e	2g
4r	4r	4r	8d
.	.	.	8f#
=17	=17	=17	=17
4DD	4A	4f#	4a
4D	4A	4f#	4f#
4D	4A	4f#	8cc#
.	.	.	8dd
=18	=18	=18	=18
4D	4A	4f#	4a
4D	4A	4f#	8ee#
.	.	.	8ff#
4D	4A	4f#	4dd
=19	=19	=19	=19
4D	4A	4f#	4gg#
2r	2r	2r	4aa
.	.	.	4ff#
=20	=20	=20	=20
2.r	2.r	2.r	2ccc#
.	.	.	4ddd
=21	=21	=21	=21
4r	4r	4r	2aa
4F#	4A	4d	.
4r	4r	4r	[4aa#
=22	=22	=22	=22
4G	4B	4d	4aa#]
4r	4r	4r	2ccc#
4G	4B	4d	.
=23	=23	=23	=23
4r	4r	4r	2bb
4G	4B	4e	.
4r	4r	4r	8gg
.	.	.	8ee
=24	=24	=24	=24
[2.A	2.d	2.f#	[2.dd
=25	=25	=25	=25
2.A]	2.c#	2.g	2dd]
.	.	.	4ee
=26	=26	=26	=26
[2.D	4d	4f#	4dd
.	4r	2r	4r
.	8B-	.	8dd
.	8c	.	8ee-
=27	=27	=27	=27
2.D_	4A	2r	4cc
.	8A	.	8cc
.	8B-	.	8dd
.	4G	4d	4b-
=28	=28	=28	=28
2.D_	2.r	8d	8b-
.	.	8e-	8cc
.	.	4c	4a
.	.	8c	8a
.	.	8d	8b-
=29	=29	=29	=29
2.D_	2.r	4B-	4g
.	.	4G	4e-
.	.	4G	4c#
=30	=30	=30	=30
4D]	8D	4A	8d
.	8C#	.	8c#
2r	8D	2r	8d
.	8C#	.	8c#
.	8D	.	8d
.	8C#	.	8c#
=31	=31	=31	=31
4DD	4D	2.r	4d
4EE	2r	.	4c#
4FF#	.	.	8c
.	.	.	8A
=32	=32	=32	=32
4GG	4d	4B	8G
.	.	.	8B
4GG	4d	4B	8d
.	.	.	8B
4GG	4d	4B	8d
.	.	.	8B
=33	=33	=33	=33
4GG	4d	4B	4d
4GG	4d	4B	4B
4GG	4d	4B	8f#
.	.	.	8g
=34	=34	=34	=34
4GG	4d	4B	4d
4GG	4d	4B	8a#
.	.	.	8b
4GG	4d	4B	4g
=35	=35	=35	=35
4GG	4d	4B	8cc#
.	.	.	8dd
4GG	4d	4B	4b
4GG	4d	4B	8ff#
.	.	.	8gg
=36	=36	=36	=36
2A	2f#	2c	2dd
4r	4r	4r	8d
.	.	.	8e-
=37	=37	=37	=37
2.r	2.r	2.r	8e
.	.	.	8f
.	.	.	8f#
.	.	.	8g
.	.	.	8g#
.	.	.	8a
=38	=38	=38	=38
4r	4r	4r	8b
.	.	.	8cc
4F#	4d	4cc	8aa
.	.	.	8ff#
4F#	4d	4a	8dd
.	.	.	8cc
=39	=39	=39	=39
4G	4d	4g	4b
4D	4d	4b	4gg
4D	4d	4a	4ff#
=40	=40	=40	=40
2.r	2.r	2.r	2.r
=41	=41	=41	=41
2.d	2.cc	2.ff#	2.aa
=42	=42	=42	=42
4G	4b	4gg	4bb
2r	2r	4r	4r
.	.	8b	4gg
.	.	8dd	.
=43	=43	=43	=43
2.r	2.r	8cc	4ff#
.	.	8dd	.
.	.	8b	4gg
.	.	8dd	.
.	.	8a	4aa
.	.	8dd	.
=44	=44	=44	=44
2r	2r	4g	8aa
.	.	.	8bb
.	.	2r	4gg
4G	4d	.	4bb
=45	=45	=45	=45
2F#	4d	2.r	8bb
.	.	.	8ccc
.	4d	.	8aa
.	.	.	8ccc
4G	4g	.	8bb
.	.	.	8gg
=46	=46	=46	=46
2D	2f#	2r	2aa
8B	4r	4g	4gg
8d	.	.	.
=47	=47	=47	=47
8c	2.r	4f#	4ff#
8d	.	.	.
8B	.	4g	4gg
8d	.	.	.
8A	.	4a	4aa
8d	.	.	.
=48	=48	=48	=48
4G	2r	8a	8aa
.	.	8b	8bb
4r	.	4g	4gg
4F#	4d	4a	4aa
=49	=49	=49	=49
2G	4d	4b	4.bb
.	8dd	8b	.
.	8b	8gg	8ggg
4A	8g	8ee	8eee
.	8e	8cc#	8ccc#
=50	=50	=50	=50
4D	4d	4dd	4ddd
2r	2r	2r	4r
.	.	.	4dd
=51	=51	=51	=51
2.r	2.r	2b	8cc#
.	.	.	8dd
.	.	.	8ee
.	.	.	8dd
.	.	4g#	8bb
.	.	.	8dd
=52	=52	=52	=52
2.r	2.r	4a	8dd
.	.	.	8cc#
.	.	4f#	8aa
.	.	.	8cc
.	.	4g	8cc
.	.	.	8b
=53	=53	=53	=53
2.r	2.r	2c	8gg
.	.	.	8b
.	.	.	8b
.	.	.	8a
.	.	4c#	8ee
.	.	.	8g
=54	=54	=54	=54
8D	2.r	2d	2f#
8d	.	.	.
8c#	.	.	.
8d	.	.	.
8c#	.	4g	4gg
8d	.	.	.
=55	=55	=55	=55
8c	2.r	4f#	4ff#
8d	.	.	.
8B	.	4g	4gg
8d	.	.	.
8A	.	4a	4aa
8d	.	.	.
=56	=56	=56	=56
2G	2r	8a	8aa
.	.	8b	8bb
.	.	4g	4gg
4r	4g	4r	4bb
=57	=57	=57	=57
2.r	2f#	2dd	8bb
.	.	.	8ccc
.	.	.	8aa
.	.	.	8ccc
.	4g	8b	8bb
.	.	8g	8gg
=58	=58	=58	=58
2r	2d	2f#	2aa
8C	8c	4a	4aa
8E	8e	.	.
=59	=59	=59	=59
8D	8d	4g#	4gg#
8E	8e	.	.
8C	8c	4a	4aa
8E	8e	.	.
8BB	8B	4b	4bb
8E	8e	.	.
=60	=60	=60	=60
2AA	2A	8b	8bb
.	.	8cc	8ccc
.	.	4a	4aa
4FF#	4d	4cc	4ccc
=61	=61	=61	=61
4GG	2d	8cc	8ccc
.	.	8b	8bb
4BB	.	8g	8gg
.	.	8b	8bb
4D	8c	8a	8aa
.	8A	8f#	8ff#
=62	=62	=62	=62
4GG	4G	4g	4gg
2r	2r	2r	2r
==	==	==	==
*-	*-	*-	*-
!!!RWG1: This file contains only pitch and duration data.
!!!RWG2: Transposing instruments are not transposed.
!!!RWG3: Spines may have incompatible meters.
!!!RWG4: Durations of rests and tied notes may be interpreted.
!!!RWG: Key is interpreted using the Humdrum key tool.
!!!GTL: 6 Quators ("Jungfernquartette")
!!!OPT: How do you do?
!!!AFT: stage1
!!!END: 1997/04/15
!!!KEY: 2153342040
!!!EMD: Converted from MuseData to Humdrum Dec 16, 2000, by Andreas Kornstaedt using muse2kern.
!!!EMD: Manual editing by Craig Sapp, Nov 2001
